topics/special-relativity/Latex/images/svg/Tikz_Lights_angle_with_particle_With_particle_moving.svg

<?xml version="1.0" encoding="UTF-8"?>
<svg xmlns="http://www.w3.org/2000/svg" xmlns:xlink="http://www.w3.org/1999/xlink" width="61.562pt" height="40.39pt" viewBox="0 0 61.562 40.39" version="1.1">
<defs>
<g>
<symbol overflow="visible" id="glyph0-0">
<path style="stroke:none;" d=""/>
</symbol>
<symbol overflow="visible" id="glyph0-1">
<path style="stroke:none;" d="M 4.75 -2.359375 C 4.75 -3.921875 3.828125 -4.40625 3.09375 -4.40625 C 1.71875 -4.40625 0.40625 -2.984375 0.40625 -1.578125 C 0.40625 -0.640625 1 0.109375 2.03125 0.109375 C 2.65625 0.109375 3.375 -0.125 4.125 -0.734375 C 4.25 -0.203125 4.578125 0.109375 5.03125 0.109375 C 5.5625 0.109375 5.875 -0.4375 5.875 -0.59375 C 5.875 -0.671875 5.8125 -0.703125 5.75 -0.703125 C 5.6875 -0.703125 5.65625 -0.671875 5.625 -0.59375 C 5.4375 -0.109375 5.078125 -0.109375 5.0625 -0.109375 C 4.75 -0.109375 4.75 -0.890625 4.75 -1.125 C 4.75 -1.328125 4.75 -1.359375 4.859375 -1.46875 C 5.796875 -2.65625 6 -3.8125 6 -3.8125 C 6 -3.84375 5.984375 -3.921875 5.875 -3.921875 C 5.78125 -3.921875 5.78125 -3.890625 5.734375 -3.703125 C 5.546875 -3.078125 5.21875 -2.328125 4.75 -1.734375 Z M 4.09375 -0.984375 C 3.203125 -0.21875 2.4375 -0.109375 2.046875 -0.109375 C 1.453125 -0.109375 1.140625 -0.5625 1.140625 -1.203125 C 1.140625 -1.6875 1.40625 -2.765625 1.71875 -3.265625 C 2.1875 -4 2.734375 -4.1875 3.078125 -4.1875 C 4.0625 -4.1875 4.0625 -2.875 4.0625 -2.109375 C 4.0625 -1.734375 4.0625 -1.15625 4.09375 -0.984375 Z M 4.09375 -0.984375 "/>
</symbol>
<symbol overflow="visible" id="glyph0-2">
<path style="stroke:none;" d="M 3.953125 -3.78125 C 3.78125 -3.78125 3.65625 -3.78125 3.515625 -3.65625 C 3.34375 -3.5 3.328125 -3.328125 3.328125 -3.265625 C 3.328125 -3.015625 3.515625 -2.90625 3.703125 -2.90625 C 3.984375 -2.90625 4.25 -3.15625 4.25 -3.546875 C 4.25 -4.03125 3.78125 -4.40625 3.078125 -4.40625 C 1.734375 -4.40625 0.40625 -2.984375 0.40625 -1.578125 C 0.40625 -0.671875 0.984375 0.109375 2.03125 0.109375 C 3.453125 0.109375 4.28125 -0.953125 4.28125 -1.0625 C 4.28125 -1.125 4.234375 -1.203125 4.171875 -1.203125 C 4.109375 -1.203125 4.09375 -1.171875 4.03125 -1.09375 C 3.25 -0.109375 2.15625 -0.109375 2.046875 -0.109375 C 1.421875 -0.109375 1.140625 -0.59375 1.140625 -1.203125 C 1.140625 -1.609375 1.34375 -2.578125 1.6875 -3.1875 C 2 -3.765625 2.546875 -4.1875 3.09375 -4.1875 C 3.421875 -4.1875 3.8125 -4.0625 3.953125 -3.78125 Z M 3.953125 -3.78125 "/>
</symbol>
<symbol overflow="visible" id="glyph0-3">
<path style="stroke:none;" d="M 3.484375 -0.5625 C 3.59375 -0.15625 3.953125 0.109375 4.375 0.109375 C 4.71875 0.109375 4.953125 -0.125 5.109375 -0.4375 C 5.28125 -0.796875 5.40625 -1.40625 5.40625 -1.421875 C 5.40625 -1.53125 5.328125 -1.53125 5.296875 -1.53125 C 5.1875 -1.53125 5.1875 -1.484375 5.15625 -1.34375 C 5.015625 -0.78125 4.828125 -0.109375 4.40625 -0.109375 C 4.203125 -0.109375 4.09375 -0.234375 4.09375 -0.5625 C 4.09375 -0.78125 4.21875 -1.25 4.296875 -1.609375 L 4.578125 -2.6875 C 4.609375 -2.828125 4.703125 -3.203125 4.75 -3.359375 C 4.796875 -3.59375 4.890625 -3.96875 4.890625 -4.03125 C 4.890625 -4.203125 4.75 -4.296875 4.609375 -4.296875 C 4.5625 -4.296875 4.296875 -4.28125 4.21875 -3.953125 C 4.03125 -3.21875 3.59375 -1.46875 3.46875 -0.953125 C 3.453125 -0.90625 3.0625 -0.109375 2.328125 -0.109375 C 1.8125 -0.109375 1.71875 -0.5625 1.71875 -0.921875 C 1.71875 -1.484375 2 -2.265625 2.25 -2.953125 C 2.375 -3.265625 2.421875 -3.40625 2.421875 -3.59375 C 2.421875 -4.03125 2.109375 -4.40625 1.609375 -4.40625 C 0.65625 -4.40625 0.296875 -2.953125 0.296875 -2.875 C 0.296875 -2.765625 0.390625 -2.765625 0.40625 -2.765625 C 0.515625 -2.765625 0.515625 -2.796875 0.5625 -2.953125 C 0.8125 -3.8125 1.203125 -4.1875 1.578125 -4.1875 C 1.671875 -4.1875 1.828125 -4.171875 1.828125 -3.859375 C 1.828125 -3.625 1.71875 -3.328125 1.65625 -3.1875 C 1.28125 -2.1875 1.078125 -1.578125 1.078125 -1.09375 C 1.078125 -0.140625 1.765625 0.109375 2.296875 0.109375 C 2.953125 0.109375 3.3125 -0.34375 3.484375 -0.5625 Z M 3.484375 -0.5625 "/>
</symbol>
</g>
<clipPath id="clip1">
  <path d="M 7 29 L 19 29 L 19 40.390625 L 7 40.390625 Z M 7 29 "/>
</clipPath>
</defs>
<g id="surface1">
<path style=" stroke:none;fill-rule:nonzero;fill:rgb(100%,89.411926%,78.431702%);fill-opacity:1;" d="M 0 40.390625 L 61.5625 40.390625 L 61.5625 0 L 0 0 Z M 0 40.390625 "/>
<path style="fill:none;stroke-width:0.3985;stroke-linecap:butt;stroke-linejoin:miter;stroke:rgb(0%,0%,0%);stroke-opacity:1;stroke-miterlimit:10;" d="M -0.000375 15.877406 C 5.648063 17.756313 11.722281 14.71725 13.605094 9.068812 " transform="matrix(1,0,0,-1,13.141,34.811)"/>
<g style="fill:rgb(0%,0%,0%);fill-opacity:1;">
  <use xlink:href="#glyph0-1" x="21.275" y="15.412"/>
</g>
<path style="fill:none;stroke-width:1.59404;stroke-linecap:butt;stroke-linejoin:miter;stroke:rgb(0%,67.83905%,93.728638%);stroke-opacity:1;stroke-miterlimit:10;" d="M -0.000375 -0.0015 L 46.269156 28.643031 " transform="matrix(1,0,0,-1,13.141,34.811)"/>
<path style="fill:none;stroke-width:1.59404;stroke-linecap:round;stroke-linejoin:round;stroke:rgb(0%,67.83905%,93.728638%);stroke-opacity:1;stroke-miterlimit:10;" d="M -3.507206 4.54957 C -2.86776 1.819789 -1.437795 0.530258 -0.00197279 -0.00023716 C -1.437801 -0.531031 -2.86541 -1.820387 -3.508369 -4.551108 " transform="matrix(0.85023,-0.52634,-0.52634,-0.85023,60.08749,5.74876)"/>
<g style="fill:rgb(0%,67.83905%,93.728638%);fill-opacity:1;">
  <use xlink:href="#glyph0-2" x="34.797" y="28.477"/>
</g>
<path style="fill:none;stroke-width:0.398;stroke-linecap:butt;stroke-linejoin:miter;stroke:rgb(0%,67.83905%,93.728638%);stroke-opacity:1;stroke-miterlimit:10;" d="M -0.000125 0.00090625 L 4.312375 0.00090625 " transform="matrix(1,0,0,-1,34.797,29.872)"/>
<path style="fill:none;stroke-width:1.59404;stroke-linecap:butt;stroke-linejoin:miter;stroke:rgb(0%,0%,0%);stroke-opacity:1;stroke-miterlimit:10;" d="M -0.000375 -0.0015 L -0.000375 32.420375 " transform="matrix(1,0,0,-1,13.141,34.811)"/>
<path style="fill:none;stroke-width:1.59404;stroke-linecap:round;stroke-linejoin:round;stroke:rgb(0%,0%,0%);stroke-opacity:1;stroke-miterlimit:10;" d="M -3.508263 4.551156 C -2.867638 1.820687 -1.43795 0.531625 -0.00045 0.000375 C -1.43795 -0.530875 -2.867638 -1.819938 -3.508263 -4.550406 " transform="matrix(0,-1,-1,0,13.141,1.5933)"/>
<g style="fill:rgb(0%,0%,0%);fill-opacity:1;">
  <use xlink:href="#glyph0-3" x="3.32" y="18.952"/>
</g>
<path style="fill:none;stroke-width:0.398;stroke-linecap:butt;stroke-linejoin:miter;stroke:rgb(0%,0%,0%);stroke-opacity:1;stroke-miterlimit:10;" d="M 0.0003125 -0.00065625 L 5.703438 -0.00065625 " transform="matrix(1,0,0,-1,3.32,20.347)"/>
<g clip-path="url(#clip1)" clip-rule="nonzero">
<path style=" stroke:none;fill-rule:nonzero;fill:rgb(0%,0%,0%);fill-opacity:1;" d="M 18.71875 34.8125 C 18.71875 31.730469 16.222656 29.230469 13.140625 29.230469 C 10.058594 29.230469 7.5625 31.730469 7.5625 34.8125 C 7.5625 37.890625 10.058594 40.390625 13.140625 40.390625 C 16.222656 40.390625 18.71875 37.890625 18.71875 34.8125 Z M 18.71875 34.8125 "/>
</g>
</g>
</svg>

<svg data-optimized="true" xmlns="http://www.w3.org/2000/svg" xmlns:xlink="http://www.w3.org/1999/xlink" width="82.083" height="53.853" viewBox="0 0 61.562 40.39"><defs><symbol id="a" overflow="visible"><path d="M4.75-2.36c0-1.562-.922-2.046-1.656-2.046-1.375 0-2.688 1.422-2.688 2.828C.406-.641 1 .109 2.031.109c.625 0 1.344-.234 2.094-.843.125.53.453.843.906.843.532 0 .844-.546.844-.703 0-.078-.062-.11-.125-.11-.062 0-.094.032-.125.11-.187.485-.547.485-.562.485-.313 0-.313-.782-.313-1.016 0-.203 0-.234.11-.344C5.796-2.656 6-3.812 6-3.812c0-.032-.016-.11-.125-.11-.094 0-.094.031-.14.219-.188.625-.516 1.375-.985 1.969ZM4.094-.983c-.89.765-1.657.875-2.047.875-.594 0-.906-.453-.906-1.094 0-.484.265-1.563.578-2.063.468-.734 1.015-.921 1.36-.921.983 0 .983 1.312.983 2.078 0 .375 0 .953.032 1.125m0 0" style="stroke:none"/></symbol><symbol id="b" overflow="visible"><path d="M3.953-3.781c-.172 0-.297 0-.437.125a.53.53 0 0 0-.188.39c0 .25.188.36.375.36.281 0 .547-.25.547-.64 0-.485-.469-.86-1.172-.86-1.344 0-2.672 1.422-2.672 2.828C.406-.672.984.109 2.031.109c1.422 0 2.25-1.062 2.25-1.171 0-.063-.047-.141-.11-.141-.062 0-.077.031-.14.11-.781.984-1.875.984-1.984.984-.625 0-.906-.485-.906-1.094 0-.406.203-1.375.547-1.984.312-.579.859-1 1.406-1 .328 0 .719.125.86.406m0 0" style="stroke:none"/></symbol><symbol id="c" overflow="visible"><path d="M3.484-.562c.11.406.47.671.891.671.344 0 .578-.234.734-.546.172-.36.297-.97.297-.985 0-.11-.078-.11-.11-.11-.109 0-.109.048-.14.188-.14.563-.328 1.235-.75 1.235-.203 0-.312-.125-.312-.453 0-.22.125-.688.203-1.047l.281-1.078c.031-.141.125-.516.172-.672.047-.235.14-.61.14-.672 0-.172-.14-.266-.28-.266-.048 0-.313.016-.391.344a419 419 0 0 0-.75 3c-.016.047-.406.844-1.14.844-.517 0-.61-.453-.61-.813 0-.562.281-1.344.531-2.031.125-.313.172-.453.172-.64 0-.438-.313-.813-.813-.813-.953 0-1.312 1.453-1.312 1.531 0 .11.094.11.11.11.109 0 .109-.032.156-.188.25-.86.64-1.235 1.015-1.235.094 0 .25.016.25.329 0 .234-.11.53-.172.672-.375 1-.578 1.609-.578 2.093C1.078-.14 1.766.11 2.297.11c.656 0 1.015-.453 1.187-.671m0 0" style="stroke:none"/></symbol><clipPath id="d"><path d="M7 29h12v11.39H7Zm0 0"/></clipPath></defs><path d="M0 40.39h61.563V0H0Zm0 0" style="stroke:none;fill-rule:nonzero;fill:#ffe4c8;fill-opacity:1"/><path d="M0 15.877A10.745 10.745 0 0 0 13.605 9.07" style="fill:none;stroke-width:.3985;stroke-linecap:butt;stroke-linejoin:miter;stroke:#000;stroke-opacity:1;stroke-miterlimit:10" transform="matrix(1 0 0 -1 13.141 34.811)"/><use xlink:href="#a" x="21.275" y="15.412" style="fill:#000;fill-opacity:1"/><path d="m0-.001 46.27 28.644" style="fill:none;stroke-width:1.59404;stroke-linecap:butt;stroke-linejoin:miter;stroke:#00adef;stroke-opacity:1;stroke-miterlimit:10" transform="matrix(1 0 0 -1 13.141 34.811)"/><path d="M-3.507 4.55C-2.867 1.82-1.437.53-.002 0c-1.436-.531-2.863-1.82-3.506-4.551" style="fill:none;stroke-width:1.59404;stroke-linecap:round;stroke-linejoin:round;stroke:#00adef;stroke-opacity:1;stroke-miterlimit:10" transform="scale(.99996 -.99996)rotate(31.76 40.15 102.74)"/><use xlink:href="#b" x="34.797" y="28.477" style="fill:#00adef;fill-opacity:1"/><path d="M0 0h4.312" style="fill:none;stroke-width:.398;stroke-linecap:butt;stroke-linejoin:miter;stroke:#00adef;stroke-opacity:1;stroke-miterlimit:10" transform="matrix(1 0 0 -1 34.797 29.872)"/><path d="M0-.001V32.42" style="fill:none;stroke-width:1.59404;stroke-linecap:butt;stroke-linejoin:miter;stroke:#000;stroke-opacity:1;stroke-miterlimit:10" transform="matrix(1 0 0 -1 13.141 34.811)"/><path d="M-3.508 4.551c.64-2.73 2.07-4.02 3.508-4.55-1.438-.532-2.868-1.82-3.508-4.551" style="fill:none;stroke-width:1.59404;stroke-linecap:round;stroke-linejoin:round;stroke:#000;stroke-opacity:1;stroke-miterlimit:10" transform="matrix(0 -1 -1 0 13.141 1.593)"/><use xlink:href="#c" x="3.32" y="18.952" style="fill:#000;fill-opacity:1"/><path d="M0 0h5.703" style="fill:none;stroke-width:.398;stroke-linecap:butt;stroke-linejoin:miter;stroke:#000;stroke-opacity:1;stroke-miterlimit:10" transform="matrix(1 0 0 -1 3.32 20.347)"/><g clip-path="url(#d)"><path d="M18.719 34.813a5.58 5.58 0 0 0-5.578-5.583 5.58 5.58 0 0 0 0 11.16c3.082 0 5.578-2.5 5.578-5.578m0 0" style="stroke:none;fill-rule:nonzero;fill:#000;fill-opacity:1"/></g></svg>
